X:1
T:A minor Alexander Johnson, 1818
T:Jefferson
%%score [ ( 1 2 3 ) ( 4 5 ) ( 6 7 ) ( 8 9 ) ]
L:1/8
Q:1/4=100
M:2/4
K:C
V:1 treble nm="Tr." snm="Tr."
V:2 treble 
V:3 treble 
V:4 treble nm="C." snm="C."
V:5 treble 
V:6 treble-8 nm="T." snm="T."
V:7 treble-8 
V:8 bass nm="B." snm="B."
V:9 bass 
V:1
 A2 AB | c2 A2 | e2 e2 | cd e2 | c2 B2 | A2 BA | G2 B2 | A4 :| E2 G2 | A2 A2 | cd ed | e2 e2 | %12
 e2 d2 | c2 A2 | c2 dc | B4 | e2 ed | B2 A2 | c2 Bc | d2 e2 | c2 B2 | A2 BA | G2 B2 | A4 |] %24
V:2
 x4 | x2 BA | G2 GA | G2 E2 | AB cd | e2 cA | x2 G2 | x4 :| c2 B2 | x4 | GA GF | E2 E2 | A2 B2 | %13
 x2 B2 | x2 BA | G4 | E2 AG | A2 x2 | x4 | x4 | e2 cB | x2 AG | E2 G2 | x4 |] %24
V:3
 x4 | x4 | x4 | x4 | x4 | x4 | d2 x2 | x4 :| x4 | x4 | x4 | x4 | x4 | x4 | x4 | x4 | x4 | x4 | x4 | %19
 x4 | x4 | x4 | x4 | x4 |] %24
V:4
 E2 E2 | A2 BA | G2 G2 | G2 E2 | AG E2 | BA G2 | EF G2 | A4 :| E2 G2 | E2 E2 | E2 GA | B2 B2 | %12
 c2 B2 | A2 G2 | E2 E2 | E4 | E2 E2 | E2 E2 | A2 E2 | G2 A2 | E2 E2 | E2 G2 | G2 G2 | E4 |] %24
V:5
 x2 EG | E2 D2 | E2 E2 | x2 A2 | x4 | E2 D2 | E2 E2 | E4 :| x4 | A2 A2 | G2 x2 | G2 E2 | G2 G2 | %13
 E2 ED | x2 GA | G4 | x2 ED | G2 A2 | x2 GA | x2 E2 | EG F2 | x2 E2 | x4 | x4 |] %24
V:6
 A2 AG | E2 GA | c2 BA | B2 A2 | AG ED | E2 GA | c2 B2 | A4 :| c2 d2 | e2 e2 | c2 BA | B2 A2 | %12
 c2 d2 | e2 ed | c2 BA | B4 | A2 cd | e2 e2 | c2 BA | B2 A2 | AG ED | E2 GA | c2 B2 | A4 |] %24
V:7
 x4 | x2 E2 | x4 | x4 | x4 | x4 | x4 | x4 :| x4 | x4 | x4 | x4 | x4 | x2 e2 | x4 | x4 | c2 d2 | %17
 x4 | x4 | x4 | x4 | x4 | x4 | x4 |] %24
V:8
 E,2 E,G, | A,2 A,2 | G,2 E,F, | G,2 E,2 | C,D, E,G, | A,2 D,2 | E,2 E,2 | A,,4 :| C2 B,2 | %9
 A,2 A,2 | G,2 A,2 | E,2 E,2 | C,2 D,2 | E,2 A,2 | %14
"^_________________________________________________________________________\nComparative Edition.\nI. BLACK – Moore's \nColumbian Harmony\n, 1825 (three-part)\nII. PURPLE – James Lowry, in \nSupplement to the Kentucky Harmony\n, 1825 (four-part), converted from 4:4 time (different from I)\nIII, RED – William Walker's \nSouthern Harmony\n, 1835 (three-part) (different from I)\nIV. GREEN – Sacred Harp, 1991 (four-part) (different from II in Counter only; no difference from I in Treble-Tenor-Bass)" G,2 D,2 | %15
 E,4 | A,2 G,A, | B,2 CB, | A,2 E,2 | D,2 E,2 | A,2 B,2 | A,2 D,2 | E,2 E,2 | A,,4 |] %24
V:9
 A,2 A,2 | A,,2 B,,2 | C,2 D,2 | E,2 x2 | A,B, CA, | B,2 G,2 | x4 | x4 :| A,2 G,2 | x4 | C,2 D,2 | %11
 x4 | x2 B,,2 | A,,2 E,2 | C,2 x2 | x4 | x2 G,F, | E,2 E,2 | C,2 D,2 | E,2 A,2 | x2 A,,2 | %21
 A,,2 B,,2 | C,2 x2 | x4 |] %24

